packages/foundations/assets/icons/functional/images/business & payment/shopping_basket_24.svg

<svg width="24" height="24" viewBox="0 0 24 24" fill="none" xmlns="http://www.w3.org/2000/svg">
<g clip-path="url(#clip0_184_113)">
<path fill-rule="evenodd" clip-rule="evenodd" d="M12.0011 2.00004C12.7898 1.99726 13.5712 2.15057 14.3003 2.45113C15.0295 2.75168 15.692 3.19355 16.2496 3.75127C16.8072 4.30899 17.249 4.97153 17.5494 5.70073C17.8498 6.42993 18.003 7.21138 18.0001 8.00004H20.6381C21.4831 8.00004 22.1091 8.78104 21.9841 9.59404L20.2631 19.906C20.0431 21.125 19.1051 22 17.7901 22H6.14911C4.99111 22 3.95911 21.094 3.77111 19.906L2.01811 9.62504C1.89311 8.81204 2.42511 8.00004 3.23811 8.00004H6.00011C6.00011 7.21202 6.15534 6.43172 6.45693 5.70371C6.75852 4.97569 7.20057 4.31421 7.75783 3.75704C8.31508 3.19988 8.97664 2.75794 9.70471 2.45647C10.4328 2.155 11.2131 1.99991 12.0011 2.00004ZM19.8871 10H4.11511L5.74211 19.594C5.77411 19.812 5.96211 20 6.14911 20H17.7911C17.9036 19.995 18.0111 19.9522 18.0962 19.8786C18.1813 19.8049 18.2391 19.7046 18.2601 19.594L19.8871 10ZM12.0011 4.00004C11.4753 3.99819 10.9542 4.10038 10.468 4.30073C9.98185 4.50108 9.54009 4.79564 9.16821 5.16743C8.79633 5.53922 8.50167 5.9809 8.30119 6.46704C8.10072 6.95319 7.9984 7.47418 8.00011 8.00004H16.0001C16.0001 5.81204 14.2231 4.00004 12.0011 4.00004Z" fill="#1A1C1F"/>
</g>
<defs>
<clipPath id="clip0_184_113">
<rect width="24" height="24" fill="white"/>
</clipPath>
</defs>
</svg>

<svg xmlns="http://www.w3.org/2000/svg" width="24" height="24" fill="none"><g clip-path="url(#a)"><path fill="#1A1C1F" fill-rule="evenodd" d="M12.001 2a5.977 5.977 0 0 1 6 6h2.637c.845 0 1.471.781 1.346 1.594l-1.72 10.312C20.043 21.125 19.104 22 17.79 22H6.15c-1.159 0-2.19-.906-2.379-2.094L2.018 9.625C1.893 8.812 2.425 8 3.238 8H6a6 6 0 0 1 6.001-6m7.886 8H4.115l1.627 9.594c.032.218.22.406.407.406h11.642a.5.5 0 0 0 .47-.406zm-7.886-6a3.987 3.987 0 0 0-4 4h8c0-2.188-1.778-4-4-4" clip-rule="evenodd"/></g><defs><clipPath id="a"><path fill="#fff" d="M0 0h24v24H0z"/></clipPath></defs></svg>
